packages/gestalt-icons-android/vr-theme/ic_vr_speed-1x_gestalt.svg

<svg width="24" height="24" viewBox="0 0 24 24" fill="none" xmlns="http://www.w3.org/2000/svg">
<path d="M12 22C6.47715 22 2 17.5228 2 12C2 6.47715 6.47715 2 12 2C17.5228 2 22 6.47715 22 12C22 12.8953 21.8823 13.7631 21.6617 14.5888L23.594 15.1066C23.8588 14.1157 24 13.0744 24 12C24 5.37258 18.6274 0 12 0C5.37258 0 0 5.37258 0 12C0 18.6274 5.37258 24 12 24V22Z" fill="black"/>
<path d="M13.4142 14.1213C12.4379 15.0977 10.855 15.0977 9.87868 14.1213C8.90237 13.145 8.90237 11.5621 9.87868 10.5858C11.1815 9.28301 14.4045 7.98021 16.0099 7.385C16.3962 7.24177 16.7583 7.60379 16.615 7.99012C16.0198 9.59548 14.717 12.8185 13.4142 14.1213Z" fill="black"/>
<path d="M16.942 16.075H15.413C15.402 17.065 14.764 17.549 13.631 17.549V19.155C14.467 19.155 15.083 18.946 15.358 18.473V23.83H16.942V16.075Z" fill="black"/>
<path d="M23.8811 23.83L21.9231 21.124L23.7161 18.605H21.9561L20.9881 20.09L20.0531 18.605H18.2821L20.0421 21.08L18.0621 23.83H19.8331L20.9881 22.092L22.1211 23.83H23.8811Z" fill="black"/>
</svg>

<svg xmlns="http://www.w3.org/2000/svg" width="24" height="24"><path d="M12 22a10 10 0 1 1 9.66-7.41l1.93.52A12.02 12.02 0 0 0 12 0a12 12 0 1 0 0 24zm4.61-14.01a.47.47 0 0 0-.6-.6c-1.6.59-4.83 1.9-6.13 3.2a2.5 2.5 0 1 0 3.53 3.53c1.3-1.3 2.61-4.52 3.2-6.13m.33 8.08h-1.53c0 1-.65 1.48-1.78 1.48v1.6c.84 0 1.45-.2 1.73-.68v5.36h1.58zm6.94 7.76-1.96-2.7 1.8-2.53h-1.76l-.97 1.49-.94-1.49h-1.77l1.76 2.48-1.98 2.75h1.77L21 22.09l1.13 1.74z"/></svg>
